X:323
T:Dublin Reel, The
R:reel
H:See also #670, in G
D:Noel Hill: The Irish Concertina
Z:id:hn-reel-323
M:C|
K:D
dF~F2 dFeF|dF~F2 AFEF|1 dF~F2 dfed|cABG AFEF:|2 d2dc dfed|cABG AFEf||
|:eA~A2 eAfA|eA~A2 BAFA|1 eA~A2 egfe|dBcA BAFA:|2 e2ed egfe|dBcA BAFA||
|:d2dc dAFA|dcdA FDFA|1 d2dc dfed|cABG AFEF:|2 d2df e2eg|fdBc dfec||
